X:930
T:Reel 930
M:4/4
K:Gmaj
L:1/8
dc|B>G (3GGG BGdc|B>G (3GFG Bdgd|B>G (3GGG BdcB|AGFG ABcA:|gfgd BGBd|gfge fgaf|gfgd BcdB|AGFG ABcA|gfge BGBd|gfge fgaf|bgaf gedB|AGFG ABcA|Bdgd  (3Bcd gd|Bdgd BGGB|A=f=f2 Afcf|c2ef  (3ABc ec|gdgd gdBd|gdBd gdBd|AGFG A2Bc|c2ec A2|
